X:1
T:Cross Over The Bridge
T:Cross over the Bridge
T:Bennie Benjamin and George Weiss
C:Bennie Benjamin, George David Weiss
Z:All Rights Reserved
L:1/8
M:4/4
K:C
V:1 treble 
%%MIDI program 4
V:1
 G |:"C" cBAG ECEG | cBAG E2 z G | cBAG ECEG |"D7" A^GA^A"G7" B2 z =G |"C" cBAG"C7" ECEC | %6
w: 1.If|you're a guy who had a girl in|each and ev- ry port and|you for- get the rules of love that|life has al- ways taught and|if you broke as man- y hearts as|
w: 2.(If)|you have built a boat to take you|to the green- er side and|if that boat is built of ev- ry|lie you ev- er lied you'll|nev- er reach the prom- ised land of|
w: 3.(I)|know it is- nt eas- y to re-|sist temp- ta- tions call but|think of how your bro- ken heart will|hurt you when you fall cause|some day you will find that you are|
"F" FEFG A2 z B |"C" cGEF GAGE |"G7" GFDE"C" C4 || z4 z c (3eee |"C" c4 z A (3ccc | G6 EF | %12
w: rip- ples in a stream well|broth- er heres the on- ly way that|you can be re- deemed|Cross ov- er the|bridge cross ov- er the|bridge change your|
w: love I guar- an- tee cause|lies can- not hold wa- ter and you'll|sink in- to the sea.||||
w: hope- less- ly in love and|she'll be- long to some- one else as|sure as stars a- bove||||
 GG^FG A G3 |"D7" z A (3ABc d"G7" _e2 d |"C" cccc"C7" eccc |"F" cccc"Ab7" _e c3 | %16
w: reck- less way of liv- ing|cross ov- er the bridge leave your|fick- le past be- hind you * and|true ro- mance will find you|
w: ||||
w: ||||
"C" c c3"G" z e (3eee |1"C" c4 z2 z G :|2"C" c4 z e"G" (3eee ||"C" c4- c z z2 |] %20
w: bro- ther cross ov- er the|bridge 2.If|||
w: |* 3.I|bridge cross o- ver the|bridge *|
w: ||||

